flaticon/music/accordion.svg

<svg xmlns="http://www.w3.org/2000/svg" width="32" height="32" viewBox="0 0 24 24">
    <path d="M18.917969 5.082031C18.992188 5.15625 19.09375 5.199219 19.199219 5.199219L20 5.199219C20.105469 5.199219 20.207031 5.15625 20.28125 5.082031L20.683594 4.683594C20.757812 4.609375 20.800781 4.507812 20.800781 4.398438L20.800781 3.601562C20.800781 3.492188 20.757812 3.390625 20.683594 3.316406L20.28125 2.917969C20.207031 2.84375 20.105469 2.800781 20 2.800781L19.199219 2.800781C19.09375 2.800781 18.992188 2.84375 18.917969 2.917969L18.515625 3.316406C18.441406 3.390625 18.398438 3.492188 18.398438 3.601562L18.398438 4.398438C18.398438 4.507812 18.441406 4.609375 18.515625 4.683594zM19.199219 3.765625L19.367188 3.601562 19.835938 3.601562 20 3.765625 20 4.234375 19.835938 4.398438 19.367188 4.398438 19.199219 4.234375zM22.28125 4.917969C22.207031 4.84375 22.105469 4.800781 22 4.800781L21.199219 4.800781C21.09375 4.800781 20.992188 4.84375 20.917969 4.917969L20.515625 5.316406C20.441406 5.390625 20.398438 5.492188 20.398438 5.601562L20.398438 6.398438C20.398438 6.507812 20.441406 6.609375 20.515625 6.683594L20.917969 7.082031C20.992188 7.15625 21.09375 7.199219 21.199219 7.199219L22 7.199219C22.105469 7.199219 22.207031 7.15625 22.28125 7.082031L22.683594 6.683594C22.757812 6.609375 22.800781 6.507812 22.800781 6.398438L22.800781 5.601562C22.800781 5.492188 22.757812 5.390625 22.683594 5.316406zM22 6.234375L21.835938 6.398438 21.367188 6.398438 21.199219 6.234375 21.199219 5.765625 21.367188 5.601562 21.835938 5.601562 22 5.765625zM18.917969 9.082031C18.992188 9.15625 19.09375 9.199219 19.199219 9.199219L20 9.199219C20.105469 9.199219 20.207031 9.15625 20.28125 9.082031L20.683594 8.683594C20.757812 8.609375 20.800781 8.507812 20.800781 8.398438L20.800781 7.601562C20.800781 7.492188 20.757812 7.390625 20.683594 7.316406L20.28125 6.917969C20.207031 6.84375 20.105469 6.800781 20 6.800781L19.199219 6.800781C19.09375 6.800781 18.992188 6.84375 18.917969 6.917969L18.515625 7.316406C18.441406 7.390625 18.398438 7.492188 18.398438 7.601562L18.398438 8.398438C18.398438 8.507812 18.441406 8.609375 18.515625 8.683594zM19.199219 7.765625L19.367188 7.601562 19.835938 7.601562 20 7.765625 20 8.234375 19.835938 8.398438 19.367188 8.398438 19.199219 8.234375zM22.28125 8.917969C22.207031 8.84375 22.105469 8.800781 22 8.800781L21.199219 8.800781C21.09375 8.800781 20.992188 8.84375 20.917969 8.917969L20.515625 9.316406C20.441406 9.390625 20.398438 9.492188 20.398438 9.601562L20.398438 10.398438C20.398438 10.507812 20.441406 10.609375 20.515625 10.683594L20.917969 11.082031C20.992188 11.15625 21.09375 11.199219 21.199219 11.199219L22 11.199219C22.105469 11.199219 22.207031 11.15625 22.28125 11.082031L22.683594 10.683594C22.757812 10.609375 22.800781 10.507812 22.800781 10.398438L22.800781 9.601562C22.800781 9.492188 22.757812 9.390625 22.683594 9.316406zM22 10.234375L21.835938 10.398438 21.367188 10.398438 21.199219 10.234375 21.199219 9.765625 21.367188 9.601562 21.835938 9.601562 22 9.765625zM18.917969 13.082031C18.992188 13.15625 19.09375 13.199219 19.199219 13.199219L20 13.199219C20.105469 13.199219 20.207031 13.15625 20.28125 13.082031L20.683594 12.683594C20.757812 12.609375 20.800781 12.507812 20.800781 12.398438L20.800781 11.601562C20.800781 11.492188 20.757812 11.390625 20.683594 11.316406L20.28125 10.917969C20.207031 10.84375 20.105469 10.800781 20 10.800781L19.199219 10.800781C19.09375 10.800781 18.992188 10.84375 18.917969 10.917969L18.515625 11.316406C18.441406 11.390625 18.398438 11.492188 18.398438 11.601562L18.398438 12.398438C18.398438 12.507812 18.441406 12.609375 18.515625 12.683594zM19.199219 11.765625L19.367188 11.601562 19.835938 11.601562 20 11.765625 20 12.234375 19.835938 12.398438 19.367188 12.398438 19.199219 12.234375zM22.28125 12.917969C22.207031 12.84375 22.105469 12.800781 22 12.800781L21.199219 12.800781C21.09375 12.800781 20.992188 12.84375 20.917969 12.917969L20.515625 13.316406C20.441406 13.390625 20.398438 13.492188 20.398438 13.601562L20.398438 14.398438C20.398438 14.507812 20.441406 14.609375 20.515625 14.683594L20.917969 15.082031C20.992188 15.15625 21.09375 15.199219 21.199219 15.199219L22 15.199219C22.105469 15.199219 22.207031 15.15625 22.28125 15.082031L22.683594 14.683594C22.757812 14.609375 22.800781 14.507812 22.800781 14.398438L22.800781 13.601562C22.800781 13.492188 22.757812 13.390625 22.683594 13.316406zM22 14.234375L21.835938 14.398438 21.367188 14.398438 21.199219 14.234375 21.199219 13.765625 21.367188 13.601562 21.835938 13.601562 22 13.765625zM18.917969 17.082031C18.992188 17.15625 19.09375 17.199219 19.199219 17.199219L20 17.199219C20.105469 17.199219 20.207031 17.15625 20.28125 17.082031L20.683594 16.683594C20.757812 16.609375 20.800781 16.507812 20.800781 16.398438L20.800781 15.601562C20.800781 15.492188 20.757812 15.390625 20.683594 15.316406L20.28125 14.917969C20.207031 14.84375 20.105469 14.800781 20 14.800781L19.199219 14.800781C19.09375 14.800781 18.992188 14.84375 18.917969 14.917969L18.515625 15.316406C18.441406 15.390625 18.398438 15.492188 18.398438 15.601562L18.398438 16.398438C18.398438 16.507812 18.441406 16.609375 18.515625 16.683594zM19.199219 15.765625L19.367188 15.601562 19.835938 15.601562 20 15.765625 20 16.234375 19.835938 16.398438 19.367188 16.398438 19.199219 16.234375zM22.28125 16.917969C22.207031 16.84375 22.105469 16.800781 22 16.800781L21.199219 16.800781C21.09375 16.800781 20.992188 16.84375 20.917969 16.917969L20.515625 17.316406C20.441406 17.390625 20.398438 17.492188 20.398438 17.601562L20.398438 18.398438C20.398438 18.507812 20.441406 18.609375 20.515625 18.683594L20.917969 19.082031C20.992188 19.15625 21.09375 19.199219 21.199219 19.199219L22 19.199219C22.105469 19.199219 22.207031 19.15625 22.28125 19.082031L22.683594 18.683594C22.757812 18.609375 22.800781 18.507812 22.800781 18.398438L22.800781 17.601562C22.800781 17.492188 22.757812 17.390625 22.683594 17.316406zM22 18.234375L21.835938 18.398438 21.367188 18.398438 21.199219 18.234375 21.199219 17.765625 21.367188 17.601562 21.835938 17.601562 22 17.765625zM20.28125 18.917969C20.207031 18.84375 20.105469 18.800781 20 18.800781L19.199219 18.800781C19.09375 18.800781 18.992188 18.84375 18.917969 18.917969L18.515625 19.316406C18.441406 19.390625 18.398438 19.492188 18.398438 19.601562L18.398438 20.398438C18.398438 20.507812 18.441406 20.609375 18.515625 20.683594L18.917969 21.082031C18.992188 21.15625 19.09375 21.199219 19.199219 21.199219L20 21.199219C20.105469 21.199219 20.207031 21.15625 20.28125 21.082031L20.683594 20.683594C20.757812 20.609375 20.800781 20.507812 20.800781 20.398438L20.800781 19.601562C20.800781 19.492188 20.757812 19.390625 20.683594 19.316406zM20 20.234375L19.835938 20.398438 19.367188 20.398438 19.199219 20.234375 19.199219 19.765625 19.367188 19.601562 19.835938 19.601562 20 19.765625zM20 20.234375"/>
    <path d="M 22.421875 0.800781 L 17.765625 0.800781 L 17.082031 0.117188 C 16.925781 -0.0390625 16.671875 -0.0390625 16.515625 0.117188 L 16 0.632812 L 15.484375 0.117188 C 15.328125 -0.0390625 15.074219 -0.0390625 14.917969 0.117188 L 14.398438 0.632812 L 13.882812 0.117188 C 13.726562 -0.0390625 13.472656 -0.0390625 13.316406 0.117188 L 12.800781 0.632812 L 12.28125 0.117188 C 12.125 -0.0390625 11.875 -0.0390625 11.71875 0.117188 L 11.035156 0.800781 L 1.578125 0.800781 C 0.707031 0.800781 0 1.507812 0 2.378906 L 0 21.621094 C 0 22.492188 0.707031 23.199219 1.578125 23.199219 L 11.035156 23.199219 L 11.71875 23.882812 C 11.796875 23.960938 11.898438 24 12 24 C 12.101562 24 12.203125 23.960938 12.28125 23.882812 L 12.800781 23.367188 L 13.316406 23.882812 C 13.394531 23.960938 13.496094 24 13.601562 24 C 13.703125 24 13.804688 23.960938 13.882812 23.882812 L 14.398438 23.367188 L 14.917969 23.882812 C 14.996094 23.960938 15.097656 24 15.199219 24 C 15.300781 24 15.40625 23.960938 15.484375 23.882812 L 16 23.367188 L 16.515625 23.882812 C 16.59375 23.960938 16.699219 24 16.800781 24 C 16.902344 24 17.003906 23.960938 17.082031 23.882812 L 17.765625 23.199219 L 22.421875 23.199219 C 23.292969 23.199219 24 22.492188 24 21.621094 L 24 2.378906 C 24 1.507812 23.292969 0.800781 22.421875 0.800781 Z M 0.800781 2.378906 C 0.800781 1.949219 1.148438 1.601562 1.578125 1.601562 L 6 1.601562 L 6 2.800781 L 2.800781 2.800781 L 2.800781 3.601562 L 0.800781 3.601562 Z M 0.800781 4.398438 L 2.800781 4.398438 L 2.800781 5.199219 L 6 5.199219 L 6 6 L 2.800781 6 L 2.800781 6.800781 L 0.800781 6.800781 Z M 0.800781 7.601562 L 2.800781 7.601562 L 2.800781 8.398438 L 6 8.398438 L 6 9.199219 L 2.800781 9.199219 L 2.800781 10 L 0.800781 10 Z M 0.800781 10.800781 L 2.800781 10.800781 L 2.800781 11.601562 L 6 11.601562 L 6 12.398438 L 2.800781 12.398438 L 2.800781 13.199219 L 0.800781 13.199219 Z M 0.800781 14 L 2.800781 14 L 2.800781 14.800781 L 6 14.800781 L 6 15.601562 L 2.800781 15.601562 L 2.800781 16.398438 L 0.800781 16.398438 Z M 0.800781 17.199219 L 2.800781 17.199219 L 2.800781 18 L 6 18 L 6 18.800781 L 2.800781 18.800781 L 2.800781 19.601562 L 0.800781 19.601562 Z M 6 22.398438 L 1.578125 22.398438 C 1.148438 22.398438 0.800781 22.050781 0.800781 21.621094 L 0.800781 20.398438 L 2.800781 20.398438 L 2.800781 21.199219 L 6 21.199219 Z M 6.800781 20.398438 L 6.800781 1.601562 L 10.800781 1.601562 L 10.800781 22.398438 L 6.800781 22.398438 Z M 12 23.035156 L 11.601562 22.632812 L 11.601562 1.367188 L 12 0.964844 L 12.398438 1.367188 L 12.398438 22.632812 Z M 13.601562 23.035156 L 13.199219 22.632812 L 13.199219 1.367188 L 13.601562 0.964844 L 14 1.367188 L 14 22.632812 Z M 15.199219 23.035156 L 14.800781 22.632812 L 14.800781 1.367188 L 15.199219 0.964844 L 15.601562 1.367188 L 15.601562 22.632812 Z M 16.800781 23.035156 L 16.398438 22.632812 L 16.398438 1.367188 L 16.800781 0.964844 L 17.199219 1.367188 L 17.199219 22.632812 Z M 23.199219 21.621094 C 23.199219 22.050781 22.851562 22.398438 22.421875 22.398438 L 18 22.398438 L 18 1.601562 L 22.421875 1.601562 C 22.851562 1.601562 23.199219 1.949219 23.199219 2.378906 Z M 23.199219 21.621094"/>
    <path d="M10.152344 2.03125C10.003906 1.96875 9.832031 2.003906 9.71875 2.117188L7.316406 4.515625C7.242188 4.59375 7.199219 4.695312 7.199219 4.800781L7.199219 9.199219C7.199219 9.355469 7.289062 9.496094 7.429688 9.5625 7.484375 9.585938 7.542969 9.601562 7.601562 9.601562 7.691406 9.601562 7.78125 9.570312 7.855469 9.507812L10.257812 7.507812C10.347656 7.429688 10.398438 7.320312 10.398438 7.199219L10.398438 2.398438C10.398438 2.238281 10.300781 2.09375 10.152344 2.03125zM9.601562 7.011719L8 8.347656 8 4.964844 9.601562 3.367188zM7.855469 14.894531C7.738281 14.792969 7.570312 14.773438 7.429688 14.835938 7.289062 14.902344 7.199219 15.042969 7.199219 15.199219L7.199219 19.199219C7.199219 19.304688 7.242188 19.40625 7.316406 19.484375L9.71875 21.882812C9.792969 21.960938 9.894531 22 10 22 10.050781 22 10.105469 21.988281 10.152344 21.96875 10.300781 21.90625 10.398438 21.761719 10.398438 21.601562L10.398438 17.199219C10.398438 17.082031 10.347656 16.96875 10.257812 16.894531zM9.601562 20.632812L8 19.035156 8 16.054688 9.601562 17.386719zM10.152344 9.230469C10.003906 9.167969 9.832031 9.203125 9.71875 9.316406L7.316406 11.71875C7.167969 11.863281 7.160156 12.101562 7.296875 12.261719L9.695312 15.058594C9.773438 15.152344 9.886719 15.199219 10 15.199219 10.046875 15.199219 10.09375 15.191406 10.140625 15.175781 10.296875 15.117188 10.398438 14.96875 10.398438 14.800781L10.398438 9.601562C10.398438 9.4375 10.300781 9.292969 10.152344 9.230469zM9.601562 13.71875L8.144531 12.019531 9.601562 10.566406zM9.601562 13.71875"/>
</svg>

<svg xmlns="http://www.w3.org/2000/svg" width="32" height="32" viewBox="0 0 24 24">
    <path d="M18.918 5.082a.4.4 0 0 0 .281.117H20a.4.4 0 0 0 .281-.117l.403-.398a.402.402 0 0 0 .117-.286v-.796c0-.11-.043-.211-.117-.286l-.403-.398A.4.4 0 0 0 20 2.801h-.8a.4.4 0 0 0-.282.117l-.402.398a.402.402 0 0 0-.118.286v.796c0 .11.043.211.118.286zm.281-1.316l.168-.164h.469l.164.164v.468l-.164.164h-.469l-.168-.164zm0 0M22.281 4.918A.4.4 0 0 0 22 4.801h-.8a.4.4 0 0 0-.282.117l-.402.398a.402.402 0 0 0-.118.286v.796c0 .11.043.211.118.286l.402.398a.4.4 0 0 0 .281.117H22a.4.4 0 0 0 .281-.117l.403-.398a.402.402 0 0 0 .117-.286v-.796c0-.11-.043-.211-.117-.286zM22 6.234l-.164.164h-.469l-.168-.164v-.468l.168-.164h.469l.164.164zm0 0M18.918 9.082a.4.4 0 0 0 .281.117H20a.4.4 0 0 0 .281-.117l.403-.398a.402.402 0 0 0 .117-.286v-.796c0-.11-.043-.211-.117-.286l-.403-.398A.4.4 0 0 0 20 6.801h-.8a.4.4 0 0 0-.282.117l-.402.398a.402.402 0 0 0-.118.286v.796c0 .11.043.211.118.286zm.281-1.316l.168-.164h.469l.164.164v.468l-.164.164h-.469l-.168-.164zm0 0M22.281 8.918A.4.4 0 0 0 22 8.801h-.8a.4.4 0 0 0-.282.117l-.402.398a.402.402 0 0 0-.118.286v.796c0 .11.043.211.118.286l.402.398a.4.4 0 0 0 .281.117H22a.4.4 0 0 0 .281-.117l.403-.398a.402.402 0 0 0 .117-.286v-.796c0-.11-.043-.211-.117-.286zM22 10.234l-.164.164h-.469l-.168-.164v-.468l.168-.164h.469l.164.164zm0 0M18.918 13.082a.4.4 0 0 0 .281.117H20a.4.4 0 0 0 .281-.117l.403-.398a.402.402 0 0 0 .117-.286v-.796c0-.11-.043-.211-.117-.286l-.403-.398a.4.4 0 0 0-.281-.117h-.8a.4.4 0 0 0-.282.117l-.402.398a.402.402 0 0 0-.118.286v.796c0 .11.043.211.118.286zm.281-1.316l.168-.164h.469l.164.164v.468l-.164.164h-.469l-.168-.164zm0 0M22.281 12.918a.4.4 0 0 0-.281-.117h-.8a.4.4 0 0 0-.282.117l-.402.398a.402.402 0 0 0-.118.286v.796c0 .11.043.211.118.286l.402.398a.4.4 0 0 0 .281.117H22a.4.4 0 0 0 .281-.117l.403-.398a.402.402 0 0 0 .117-.286v-.796c0-.11-.043-.211-.117-.286zM22 14.234l-.164.164h-.469l-.168-.164v-.468l.168-.164h.469l.164.164zm0 0M18.918 17.082a.4.4 0 0 0 .281.117H20a.4.4 0 0 0 .281-.117l.403-.398a.402.402 0 0 0 .117-.286v-.796c0-.11-.043-.211-.117-.286l-.403-.398a.4.4 0 0 0-.281-.117h-.8a.4.4 0 0 0-.282.117l-.402.398a.402.402 0 0 0-.118.286v.796c0 .11.043.211.118.286zm.281-1.316l.168-.164h.469l.164.164v.468l-.164.164h-.469l-.168-.164zm0 0M22.281 16.918a.4.4 0 0 0-.281-.117h-.8a.4.4 0 0 0-.282.117l-.402.398a.402.402 0 0 0-.118.286v.796c0 .11.043.211.118.286l.402.398a.4.4 0 0 0 .281.117H22a.4.4 0 0 0 .281-.117l.403-.398a.402.402 0 0 0 .117-.286v-.796c0-.11-.043-.211-.117-.286zM22 18.234l-.164.164h-.469l-.168-.164v-.468l.168-.164h.469l.164.164zm0 0M20.281 18.918a.4.4 0 0 0-.281-.117h-.8a.4.4 0 0 0-.282.117l-.402.398a.402.402 0 0 0-.118.286v.796c0 .11.043.211.118.286l.402.398a.4.4 0 0 0 .281.117H20a.4.4 0 0 0 .281-.117l.403-.398a.402.402 0 0 0 .117-.286v-.796c0-.11-.043-.211-.117-.286zM20 20.234l-.164.164h-.469l-.168-.164v-.468l.168-.164h.469l.164.164zm0 0"/>
    <path d="M22.422.8h-4.656l-.684-.683a.4.4 0 0 0-.566 0L16 .633l-.516-.516a.4.4 0 0 0-.566 0l-.52.516-.515-.516a.4.4 0 0 0-.567 0l-.515.516-.52-.516a.396.396 0 0 0-.562 0l-.684.684H1.578C.707.8 0 1.508 0 2.379V21.62c0 .871.707 1.578 1.578 1.578h9.457l.684.684a.396.396 0 0 0 .562 0l.52-.516.515.516a.399.399 0 0 0 .567 0l.515-.516.52.516c.078.078.18.117.281.117.102 0 .207-.04.285-.117l.516-.516.516.516A.405.405 0 0 0 16.8 24c.101 0 .203-.04.281-.117l.684-.684h4.656c.871 0 1.578-.707 1.578-1.578V2.38C24 1.508 23.293.8 22.422.8zM.8 2.38c0-.43.347-.777.777-.777H6V2.8H2.8v.8h-2zm0 2.02h2v.8H6V6H2.8v.8h-2zm0 3.203h2v.796H6V9.2H2.8V10h-2zm0 3.199h2v.8H6v.797H2.8v.801h-2zM.8 14h2v.8H6v.802H2.8v.796h-2zm0 3.2h2v.8H6v.8H2.8v.802h-2zM6 22.397H1.578a.777.777 0 0 1-.777-.777v-1.223h2v.801H6zm.8-2V1.602h4v20.796h-4zm5.2 2.637l-.398-.402V1.367L12 .965l.398.402v21.266zm1.602 0l-.403-.402V1.367l.403-.402.398.402v21.266zm1.597 0l-.398-.402V1.367l.398-.402.403.402v21.266zm1.602 0l-.403-.402V1.367l.403-.402.398.402v21.266zm6.398-1.414c0 .43-.347.777-.777.777H18V1.602h4.422c.43 0 .777.347.777.777zm0 0"/>
    <path d="M10.152 2.031a.397.397 0 0 0-.433.086L7.316 4.516A.416.416 0 0 0 7.2 4.8v4.398a.401.401 0 0 0 .656.309l2.403-2a.404.404 0 0 0 .14-.309V2.4a.4.4 0 0 0-.246-.368zm-.55 4.98L8 8.349V4.965l1.602-1.598zm0 0M7.855 14.895a.403.403 0 0 0-.425-.06.401.401 0 0 0-.23.364v4c0 .106.042.207.116.285l2.403 2.399A.384.384 0 0 0 10 22a.4.4 0 0 0 .398-.398v-4.403c0-.117-.05-.23-.14-.304zm1.747 5.738L8 19.035v-2.98l1.602 1.332zm0 0M10.152 9.23a.397.397 0 0 0-.433.086L7.316 11.72a.398.398 0 0 0-.02.543l2.4 2.797c.077.093.19.14.304.14a.398.398 0 0 0 .398-.398V9.6a.401.401 0 0 0-.246-.37zm-.55 4.489l-1.457-1.7 1.457-1.453zm0 0"/>
</svg>
